public/svg/earth.svg

<?xml version="1.0" encoding="UTF-8"?>
<svg fill="none" viewBox="0 0 134 182" xmlns="http://www.w3.org/2000/svg">
<path d="m67 181.63c36.825 0 66.788-29.957 66.788-66.782 0-35.768-28.293-64.975-63.663-66.625v-9.8371l4.3627-4.3627c1.8372 0.9935 3.9687 1.5625 6.2937 1.5625 0.8502 0 1.7121-0.069 2.6003-0.2064 4.1003-0.6497 8.2312-2.806 11.331-5.9063 9.181-9.181 9.007-25.337 8.994-26.025-0.032-1.681-1.388-3.0378-3.069-3.069-0.7003-0.03125-16.857-0.16862-26.019 8.9935-3.1003 3.1003-5.25 7.2312-5.9063 11.337-0.5248 3.306-0.0248 6.3996 1.3314 8.9128l-3.0437 3.0502-3.056-3.0502c3.1003-5.7435 1.3873-14.294-4.569-20.243-9.1875-9.194-25.343-9-26.025-8.9935-1.681 0.03125-3.0379 1.3874-3.069 3.069-0.0124 0.68099-0.1875 16.837 8.9935 26.025 4.0123 4.0065 9.1998 6.1126 13.919 6.1126 2.2879 0 4.4375-0.5436 6.3125-1.556l4.3692 4.3497v9.8372c-35.368 1.6497-63.657 30.857-63.657 66.625 0 36.825 29.957 66.782 66.782 66.782h-4e-4zm-55.613-42.919c1.3314 0.481 2.7688 0.869 4.4063 0.976 6.3002 0.406 9.4877 2.668 12.856 5.062 3.194 2.262 6.4935 4.606 11.875 4.85 2.8562 0.176 5.1497-1.425 6.9753-2.675 2.5502-1.743 3.3562-2.081 4.7747-1.237 4.1185 2.449 6.8685 6.631 7.5378 11.468 0.5248 3.806 3.4129 5.931 5.9622 7.806 1.7377 1.275 3.3815 2.481 4.0813 4.025 0.5248 1.137 0.375 3.906 0.0124 6.256-0.9557 0.038-1.8997 0.138-2.8685 0.138-24.907 0-46.332-15.125-55.613-36.669h6e-4zm114.31-38.418c-2.199-1.6999-3.981-3.8437-5.662-6.0065-3.75-4.819-8.426-10.812-17.894-6.4252-3.55 1.6562-7.4998 1.8627-10.988 2.0437-4.3371 0.2311-8.4375 0.444-10.806 3.5625-2.194 2.8815-1.6497 6.8055-1.0501 9.5065 1.0625 4.8 8.0437 9.281 11.95 11.45l-0.7187 15.225-1.9877 3.975c-1.3939-4.75-3.1563-10.606-4.4128-14.231-1.9622-5.687-8.9687-5.5-16.375-5.319-5.431 0.15-11.6 0.3-15.188-1.887-1.7878-1.094-2-2.025-2.0748-2.337-0.4499-1.981 1.4752-4.962 2.8873-7.138 1.3997-2.162 2.4128-3.7249 2.2311-5.5497-0.2623-2.6752-2.5188-3.6752-4.4374-4.1563 1.3372-1.9252 2.3371-4.25 3.3059-6.5124 1.4812-3.444 3.0124-7.0065 5.431-8.5437 1.625-1.0312 3.931-1.1627 6.3815-1.3001 4.431-0.2565 9.9441-0.569 13.538-6.4935 3.1497-5.1998 1.0312-10.7-1.694-14.775 23.295 4.349 41.895 22.087 47.563 44.911zm-50.8-78.6c0.444-2.8313 1.9563-5.7121 4.1496-7.8996 5.1374-5.1374 13.637-6.5937 18.262-7.0065-0.4128 4.6185-1.8685 13.125-7.0065 18.262-2.194 2.1875-5.069 3.6999-7.8997 4.1497-1.4935 0.25-4.2688 0.3685-6.069-1.4375-1.806-1.806-1.6745-4.5748-1.4368-6.0683l7e-4 6e-4zm-31.193 3.3627c-5.1373-5.1373-6.5936-13.644-7.0065-18.262 4.625 0.41276 13.125 1.8685 18.262 7.0064 4.3627 4.3627 5.6563 11.019 2.7122 13.969-2.9369 2.9433-9.6055 1.6497-13.968-2.7128l8e-4 -7e-4zm23.3 29.257c0.7253 0 1.431 0.0814 2.1497 0.1061 1.8437 1.7623 7.9753 8.1127 5.3125 12.5-1.7937 2.9622-4.2878 3.2435-8.5437 3.4877-2.9876 0.1686-6.375 0.3685-9.375 2.2688-4.0436 2.5748-6.0501 7.2377-7.819 11.344-1.1562 2.681-2.2435 5.2121-3.5871 6.4753-1.7689 1.6563-2.4187 3.3437-1.9252 5.0123 0.7435 2.4935 3.3125 2.9812 5.2122 3.319-0.1062 0.1687-0.2123 0.3314-0.3125 0.4812-2.0124 3.1126-4.7747 7.3686-3.7377 11.926 0.5749 2.531 2.2312 4.643 4.9128 6.274 5.1564 3.144 12.312 2.962 18.6 2.8 3.681-0.081 9.8372-0.256 10.306 1.119 2.2937 6.613 6.4812 21.437 6.5247 21.587 0.3561 1.243 1.431 2.143 2.7187 2.262 0.1002 0.012 0.194 0.012 0.2936 0.012 1.1751 0 2.2623-0.663 2.7937-1.725l5.8626-11.719c0.194-0.387 0.306-0.812 0.3249-1.25l0.8503-17.863c0.0625-1.231-0.6127-2.382-1.7064-2.938-4.6127-2.343-10.05-6.274-10.475-8.181-0.7311-3.2933-0.194-4.2183-0.0814-4.3681 0.625-0.8125 3.694-0.9753 6.1628-1.1061 3.8504-0.1999 8.6438-0.4499 13.294-2.6127 4.719-2.181 6.337-0.5247 10.325 4.5937 2.774 3.5622 6.274 7.8432 12.05 10.043 0.243 2.2 0.387 4.426 0.387 6.688 0 30.218-22.281 55.262-51.268 59.743 0.2878-2.612 0.3503-5.887-0.7252-8.218-1.3815-3.007-3.8627-4.838-6.0625-6.457-2.056-1.512-3.319-2.512-3.4754-3.625-0.9251-6.737-4.7688-12.562-10.538-15.987-5.0123-2.976-8.9187-0.313-11.5 1.449-1.2188 0.832-2.4622 1.513-3.1628 1.588-3.5437-0.163-5.75-1.726-8.5437-3.707-3.5625-2.524-8-5.675-16.069-6.199-5.11-0.318-7.86-4.418-8.0287-4.68-1.056-4.475-1.6752-9.119-1.6752-13.913 0-33.375 27.157-60.532 60.532-60.532l-3e-4 0.0019z" fill="#008BE6"/>
</svg>

<svg width="134" height="182" viewBox="0 0 134 182" fill="none" xmlns="http://www.w3.org/2000/svg">
<path d="M67 181.631C103.825 181.631 133.788 151.674 133.788 114.849C133.788 79.0806 105.495 49.8739 70.125 48.2239V38.3868L74.4877 34.0241C76.3249 35.0176 78.4564 35.5866 80.7814 35.5866C81.6316 35.5866 82.4935 35.5176 83.3817 35.3802C87.482 34.7305 91.6129 32.5742 94.713 29.4739C103.894 20.2929 103.72 4.13723 103.707 3.4489C103.675 1.7679 102.319 0.411063 100.638 0.379896C99.9377 0.348646 83.7809 0.21128 74.6192 9.3734C71.5189 12.4737 69.3692 16.6046 68.7129 20.7106C68.1881 24.0166 68.6881 27.1102 70.0443 29.6234L67.0006 32.6736L63.9446 29.6234C67.0449 23.8799 65.3319 15.3297 59.3756 9.38006C50.1881 0.186062 34.0322 0.380063 33.3506 0.386563C31.6696 0.417813 30.3127 1.77393 30.2816 3.45556C30.2692 4.13655 30.0941 20.2922 39.2751 29.4806C43.2874 33.4871 48.4749 35.5932 53.1937 35.5932C55.4816 35.5932 57.6312 35.0496 59.5062 34.0372L63.8754 38.3869V48.2241C28.5071 49.8738 0.21875 79.0807 0.21875 114.849C0.21875 151.674 30.1754 181.631 67.0004 181.631L67 181.631ZM11.3867 138.712C12.7181 139.193 14.1555 139.581 15.793 139.688C22.0932 140.094 25.2807 142.356 28.6492 144.75C31.8432 147.012 35.1427 149.356 40.5242 149.6C43.3804 149.776 45.6739 148.175 47.4995 146.925C50.0497 145.182 50.8557 144.844 52.2742 145.688C56.3927 148.137 59.1427 152.319 59.812 157.156C60.3368 160.962 63.2249 163.087 65.7742 164.962C67.5119 166.237 69.1557 167.443 69.8555 168.987C70.3803 170.124 70.2305 172.893 69.8679 175.243C68.9122 175.281 67.9682 175.381 66.9994 175.381C42.0927 175.381 20.6677 160.256 11.3861 138.712L11.3867 138.712ZM125.693 100.294C123.494 98.5941 121.712 96.4503 120.031 94.2875C116.281 89.4685 111.605 83.475 102.137 87.8623C98.587 89.5185 94.6372 89.725 91.1495 89.906C86.8124 90.1371 82.712 90.35 80.3435 93.4685C78.1495 96.35 78.6938 100.274 79.2934 102.975C80.3559 107.775 87.3371 112.256 91.2432 114.425L90.5245 129.65L88.5368 133.625C87.1429 128.875 85.3805 123.019 84.124 119.394C82.1618 113.707 75.1553 113.894 67.749 114.075C62.318 114.225 56.1487 114.375 52.5615 112.188C50.7737 111.094 50.5615 110.163 50.4867 109.851C50.0368 107.87 51.9619 104.889 53.374 102.713C54.7737 100.551 55.7868 98.9881 55.6051 97.1633C55.3428 94.4881 53.0863 93.4881 51.1677 93.007C52.5049 91.0818 53.5048 88.757 54.4736 86.4946C55.9548 83.0506 57.486 79.4881 59.9046 77.9509C61.5296 76.9197 63.8356 76.7882 66.2861 76.6508C70.7171 76.3943 76.2302 76.0818 79.824 70.1573C82.9737 64.9575 80.8552 59.4575 78.13 55.3826C101.425 59.7316 120.025 77.4693 125.693 100.294L125.693 100.294ZM74.8934 21.6939C75.3374 18.8626 76.8497 15.9818 79.043 13.7943C84.1804 8.65695 92.6804 7.20061 97.3047 6.78778C96.8919 11.4063 95.4362 19.9128 90.2982 25.0494C88.1042 27.2369 85.2292 28.7493 82.3985 29.1991C80.905 29.4491 78.1297 29.5676 76.3295 27.7616C74.5235 25.9556 74.655 23.1868 74.8927 21.6933L74.8934 21.6939ZM43.7 25.0566C38.5627 19.9193 37.1064 11.4128 36.6935 6.79495C41.3185 7.20771 49.8185 8.66345 54.9552 13.8014C59.3179 18.1641 60.6115 24.8203 57.6674 27.7701C54.7305 30.7134 48.0619 29.4198 43.6992 25.0573L43.7 25.0566ZM67 54.3133C67.7253 54.3133 68.431 54.3947 69.1497 54.4194C70.9934 56.1817 77.125 62.5321 74.4622 66.9194C72.6685 69.8816 70.1744 70.1629 65.9185 70.4071C62.9309 70.5757 59.5435 70.7756 56.5435 72.6759C52.4999 75.2507 50.4934 79.9136 48.7245 84.0196C47.5683 86.7006 46.481 89.2317 45.1374 90.4949C43.3685 92.1512 42.7187 93.8386 43.2122 95.5072C43.9557 98.0007 46.5247 98.4884 48.4244 98.8262C48.3182 98.9949 48.2121 99.1576 48.1119 99.3074C46.0995 102.42 43.3372 106.676 44.3742 111.233C44.9491 113.764 46.6054 115.876 49.287 117.507C54.4434 120.651 61.5995 120.469 67.887 120.307C71.568 120.226 77.7242 120.051 78.193 121.426C80.4867 128.039 84.6742 142.863 84.7177 143.013C85.0738 144.256 86.1487 145.156 87.4364 145.275C87.5366 145.287 87.6304 145.287 87.73 145.287C88.9051 145.287 89.9923 144.624 90.5237 143.562L96.3863 131.843C96.5803 131.456 96.6923 131.031 96.7112 130.593L97.5615 112.73C97.624 111.499 96.9488 110.348 95.8551 109.792C91.2424 107.449 85.8049 103.518 85.3798 101.611C84.6487 98.3177 85.1858 97.3927 85.2984 97.2429C85.9234 96.4304 88.9924 96.2676 91.4612 96.1368C95.3116 95.9369 100.105 95.6869 104.755 93.5241C109.474 91.3431 111.092 92.9994 115.08 98.1178C117.854 101.68 121.354 105.961 127.13 108.161C127.373 110.361 127.517 112.587 127.517 114.849C127.517 145.067 105.236 170.111 76.2489 174.592C76.5367 171.98 76.5992 168.705 75.5237 166.374C74.1422 163.367 71.661 161.536 69.4612 159.917C67.4052 158.405 66.1422 157.405 65.9858 156.292C65.0607 149.555 61.217 143.73 55.448 140.305C50.4357 137.329 46.5293 139.992 43.948 141.754C42.7292 142.586 41.4858 143.267 40.7852 143.342C37.2415 143.179 35.0352 141.616 32.2415 139.635C28.679 137.111 24.2415 133.96 16.1725 133.436C11.0625 133.118 8.3125 129.018 8.14384 128.756C7.08785 124.281 6.46867 119.637 6.46867 114.843C6.46867 81.468 33.6253 54.3114 67.0003 54.3114L67 54.3133Z" fill="#008BE6"/>
</svg>
